svg/fluentui-system-icons/ic_fluent_document_endnote_20_filled.svg

<svg width="20" height="20" viewBox="0 0 20 20" fill="none" xmlns="http://www.w3.org/2000/svg">
<path d="M10 2V6.5C10 7.32843 10.6716 8 11.5 8H16V16.5C16 17.3284 15.3284 18 14.5 18H11V12C11 10.8954 10.1046 10 9 10H4V3.5C4 2.67157 4.67157 2 5.5 2H10ZM11 2.25V6.5C11 6.77614 11.2239 7 11.5 7H15.75L11 2.25ZM3.5 11C3.77614 11 4 11.2239 4 11.5C4 11.7761 3.77614 12 3.5 12H2.5C2.22386 12 2 12.2239 2 12.5V17.5C2 17.7761 2.22386 18 2.5 18H3.5C3.77614 18 4 18.2239 4 18.5C4 18.7761 3.77614 19 3.5 19H2.5C1.67157 19 1 18.3284 1 17.5V12.5C1 11.6716 1.67157 11 2.5 11H3.5ZM7.5 18C7.22386 18 7 18.2239 7 18.5C7 18.7761 7.22386 19 7.5 19H8.5C9.32843 19 10 18.3284 10 17.5V12.5C10 11.6716 9.32843 11 8.5 11H7.5C7.22386 11 7 11.2239 7 11.5C7 11.7761 7.22386 12 7.5 12H8.5C8.77614 12 9 12.2239 9 12.5V17.5C9 17.7761 8.77614 18 8.5 18H7.5ZM5.999 14.4998C5.99888 14.2237 5.77492 13.9999 5.49878 14C5.22264 14.0001 4.99888 14.2241 4.999 14.5002L5.00034 17.5002C5.00046 17.7764 5.22442 18.0001 5.50056 18C5.7767 17.9999 6.00046 17.7759 6.00034 17.4998L5.999 14.4998ZM6 12.5C6 12.7761 5.77614 13 5.5 13C5.22386 13 5 12.7761 5 12.5C5 12.2239 5.22386 12 5.5 12C5.77614 12 6 12.2239 6 12.5Z" fill="#212121"/>
</svg>

<svg xmlns="http://www.w3.org/2000/svg" width="20" height="20"><path d="M10 2v4.5A1.5 1.5 0 0 0 11.5 8H16v8.5a1.5 1.5 0 0 1-1.5 1.5H11v-6a2 2 0 0 0-2-2H4V3.5A1.5 1.5 0 0 1 5.5 2H10Zm1 .25V6.5a.5.5 0 0 0 .5.5h4.25L11 2.25ZM3.5 11a.5.5 0 0 1 0 1h-1a.5.5 0 0 0-.5.5v5a.5.5 0 0 0 .5.5h1a.5.5 0 0 1 0 1h-1A1.5 1.5 0 0 1 1 17.5v-5A1.5 1.5 0 0 1 2.5 11h1Zm4 7a.5.5 0 0 0 0 1h1a1.5 1.5 0 0 0 1.5-1.5v-5A1.5 1.5 0 0 0 8.5 11h-1a.5.5 0 0 0 0 1h1a.5.5 0 0 1 .5.5v5a.5.5 0 0 1-.5.5h-1Zm-1.501-3.5a.5.5 0 0 0-1 0l.001 3a.5.5 0 1 0 1 0v-3Zm.001-2a.5.5 0 1 1-1 0 .5.5 0 0 1 1 0Z"/></svg>
